X:165
T: Connacht Heifers
S: "Ceol Rince na hEireann" 1/89
Z: B.Black
L: 1/8
M: 4/4
R: reel
K: G
FEFG A2 BG|A2 BG AGFD|FEFG AG G2|DG G2 AG G2|
FEFG A2 BG|A2 BG AGFD|FEFG AG G2|DG G2 AG G>||
g|fde^c d3=c|A2 BG (3AB^c de|fde^c d2 cA|BG G2 AGFD|
fde^c d3=c|A2 BG (3AB^c de|fefd edcA|BG G2 AGFD||
